X: 1
T: Lexy McAskill
C: Dr.John McAskill
R: reel
Z: John Chambers <jc:trillian.mit.edu> (from Barbara McOwen)
M: C|
L: 1/8
K: Ador
   a "A"| "Am"e2e2 deed |     e2dB "G"GBBd | "Am"e2e2 deed |  "G"egfd "Am"e2e :|
|: f "B"| "Am"g2f2 e2dB | "D7"AAdB "G"GBBe | "Am"g2f2 e2dB | "Em"egfd "Am"e2e :|
|: g "C"| "Am"e2e2 e2dB |     AAAB "G"GABd | "Am"e2e2 e2dB |  "G"egfd "Am"e2e :|
|: g "D"| "Am"aeea e2dB | "D7"AAdB "G"GBBe | "Am"aeea e2dB | "Em"egfd "Am"e2e :|
